packages/kaspersky-hexa-ui-icons/src/iconsSVGs/16/Tv.svg

<svg width="16" height="16" viewBox="0 0 16 16" fill="none" xmlns="http://www.w3.org/2000/svg">
<path fill-rule="evenodd" clip-rule="evenodd" d="M1.05078 4.71689C1.05078 3.25334 2.23723 2.06689 3.70078 2.06689H12.3008C13.7643 2.06689 14.9508 3.25334 14.9508 4.71689V9.41703C14.9508 10.8806 13.7643 12.067 12.3008 12.067H10.2787L11.7294 13.5177C11.9832 13.7716 11.9832 14.1831 11.7294 14.437C11.4756 14.6908 11.064 14.6908 10.8102 14.437L8.44024 12.067H7.56132L5.19141 14.437C4.93757 14.6908 4.52601 14.6908 4.27217 14.437C4.01833 14.1831 4.01833 13.7716 4.27217 13.5177L5.72285 12.067H3.70078C2.23723 12.067 1.05078 10.8806 1.05078 9.41703V4.71689ZM3.70078 3.36689C2.9552 3.36689 2.35078 3.97131 2.35078 4.71689V9.41703C2.35078 10.1626 2.9552 10.767 3.70078 10.767H12.3008C13.0464 10.767 13.6508 10.1626 13.6508 9.41703V4.71689C13.6508 3.97131 13.0464 3.36689 12.3008 3.36689H3.70078Z" fill="black"/>
</svg>

<svg xmlns="http://www.w3.org/2000/svg" width="16" height="16" fill="none" viewBox="0 0 16 16"><path fill="#000" fill-rule="evenodd" d="M1.0508 4.7169c0-1.4636 1.1864-2.65 2.65-2.65h8.6c1.4635 0 2.65 1.1864 2.65 2.65V9.417c0 1.4636-1.1865 2.65-2.65 2.65h-2.0221l1.4507 1.4507a.65.65 0 0 1-.9192.9193l-2.37-2.37h-.8789l-2.3699 2.37a.65.65 0 0 1-.9192-.9193l1.4507-1.4507H3.7008c-1.4636 0-2.65-1.1864-2.65-2.65zm2.65-1.35c-.7456 0-1.35.6044-1.35 1.35V9.417c0 .7456.6044 1.35 1.35 1.35h8.6c.7456 0 1.35-.6044 1.35-1.35v-4.7c0-.7456-.6044-1.35-1.35-1.35z"/></svg>
